X:157
T:Walsh's Polka #1
M:2/4
L:1/8
R:polka
D:Patrick Street: All in Good Time
Z:Michael Abraham Shulman
N:Set with other two Walsh's Polkas
K:D
|:fa af/a/|ba fa|gg Bc|ed c/B/A|a2 af/a/|ba fa|gg Bc|ed d2:|
|:f>e fe|dc BA|g>f ga|ba f/g/a|f>e fe|dc BA|gg Bc|ed d2:|
